X:1
T:Portugal, LM
T:Thomas Thorley, 1789
T:Portugal, LM
T:Public Domain
C:Thomas Thorley, 1789
Z:Public Domain
%%score ( 1 2 ) ( 3 4 )
L:1/8
M:4/4
K:A
V:1 treble 
V:2 treble 
V:3 bass 
V:4 bass 
V:1
 E4 | [EA]4 [GB]4 | (c2 A2) (c2 e2) | (d2 c2) [EB]4 | [EA]4 [Ec]4 | [EB]4 A4 | %6
 (3(B2 A2 B2) (3(E2 G2 B2) | (A2 G2) [^DF]4 | E4 [ce]4 | ([ce]2 [Ac]2) ([ce]2 [df]2) | %10
 ([Bd]2 [GB]2 [Ac]2 [ce]2) | (c2 A2) (e2 c2) | ([Ac]2 [GB]2) E4 | [EA]4 [GB]4 | %14
 (c2 A2) ([Ec]2 [Ae]2) | ([Ad]2 [Fc]2) [EB]4 | [EA]4 |] %17
V:2
 E4 | x8 | A4 E4 | F4 x4 | x8 | x4 A4 | G4 G4 | E4 x4 | E4 x4 | x8 | x8 | A4 A4 | x4 E4 | x8 | %14
 A4 x4 | x8 | x4 |] %17
V:3
 [E,A,]4 | [A,,C]4 [E,E]4 | (E2 C2) (C2 E2) | [D,F]4 (E2 D2) | [A,,C]4 [A,E]4 | [E,E]4 [F,C]4 | %6
 [E,E]4 [E,B,]4 | [A,,E]4 [B,,^D]4 | [E,E]4 [A,C]4 | (C2 E2) (E2 D2) | (D2 F2) (F2 E2) | %11
 (E2 C2) [A,,A,]4 | [E,E]4 [E,E]4 | (E2 C2) [E,E]4 | A,4 [A,C]4 | (A,2 C2) [E,E]4 | [A,,C]4 |] %17
V:4
 x4 | x8 | A,4 A,4 | x4 E,4 | x8 | x8 | x8 | x8 | x8 | A,4 A,4 | E,4 A,4 | A,4 x4 | x8 | A,,4 x4 | %14
 A,4 x4 | D,4 x4 | x4 |] %17

